src/24/actions/view-object-histogram-linear.svg

<svg xmlns="http://www.w3.org/2000/svg" viewBox="0 0 24 24"><path d="M5 4v14H4v1h1v1h1v-1h14v-1h-1v-1h-2v-1h-2v-1h-1v1h-1v-1h-1V8h-1V4h-1v2H9v3H8v2H7v3H6V4H5z" fill="currentColor" color="#5d656b"/></svg>

<svg xmlns="http://www.w3.org/2000/svg" viewBox="0 0 24 24">
  <defs id="defs3051">
    <style type="text/css" id="current-color-scheme">
      .ColorScheme-Text {
        color:#5d656b;
      }
      </style>
  </defs>
 <path style="fill:currentColor;fill-opacity:1;stroke:none" 
     d="M 5 4 L 5 18 L 4 18 L 4 19 L 5 19 L 5 20 L 6 20 L 6 19 L 20 19 L 20 18 L 19 18 L 19 17 L 18 17 L 17 17 L 17 16 L 16 16 L 15 16 L 15 15 L 14 15 L 14 16 L 13 16 L 13 15 L 12 15 L 12 8 L 11 8 L 11 4 L 10 4 L 10 6 L 9 6 L 9 9 L 8 9 L 8 11 L 7 11 L 7 14 L 6 14 L 6 4 L 5 4 z "
     class="ColorScheme-Text"
     />
</svg>
